X: 290
T:Skye Boat Song
G:rowing song or lullaby
S:Loesberg, Traditional Folksongs and Ballads of Scotland
M:6/8
L:1/8
Q:3/8=54
K:G
D>ED G2 G/G/|A>BA d3 |
B>AB E2 E   |D3-  D3 |
D>ED G2 G   |A>BA d3 |
B>AB E2 E   |D3-  D3-|D3 z3||
K:EMin
B>GB B3|AEA A3|GEG  G2G|E3 -E3 |
B>GB B3|AEA A3|G>EG G2G|E3- E3||
K:G
D>ED G2 G/G/|A>BA d3 |
B>AB E2 E   |D3-  D3 |
D>ED G2 G   |A>BA d3 |
B>AB E2 E   |D3-  D3-|D3 z3||

=============================================================================
==  (c) Jack Campin           http://www.campin.me.uk/        August 2013  ==
==        11 Third Street, Newtongrange, Midlothian EH22 4PU, Scotland     ==
==                                                                         ==
==              these pages: http://tinyurl.com/scottishmodes              ==
=============================================================================

